X: 570
T: Guan deng
L: 1/8
M: 2/4
K: G
d d/ d/ e g [I:setbarnb 1]| 
dd3 | 
g e/ d/ d E | 
GG3 | 
G> A d B | 
A B A G | 
A A/ B/ G D | 
E E G/ G/ G/ E/ | 
DD3 |]

@@@ Tune index: 9444
